src/assets/duotone/CloudAdd.svg

<svg width="24" height="24" viewBox="0 0 24 24"  xmlns="http://www.w3.org/2000/svg">
<path opacity="0.4" d="M20.2698 17.1897C19.2698 18.0997 17.9798 18.5997 16.6298 18.5897H16.5398C16.8398 17.9697 16.9998 17.2697 16.9998 16.5297C16.9998 13.7697 14.7598 11.5297 11.9998 11.5297C9.23981 11.5297 6.99981 13.7697 6.99981 16.5297C6.99981 17.2697 7.15983 17.9697 7.45983 18.5897H5.53978C0.859785 18.2597 0.859785 11.4497 5.53978 11.1197H5.58983C2.37983 2.18966 15.9198 -1.38034 17.4698 7.99966C21.7998 8.54966 23.5498 14.3197 20.2698 17.1897Z" />
<path d="M12 11.5303C9.24 11.5303 7 13.7703 7 16.5303C7 17.2703 7.16002 17.9703 7.46002 18.5903C7.54002 18.7703 7.62998 18.9403 7.72998 19.1003C8.58998 20.5503 10.18 21.5303 12 21.5303C13.82 21.5303 15.41 20.5503 16.27 19.1003C16.37 18.9403 16.46 18.7703 16.54 18.5903C16.84 17.9703 17 17.2703 17 16.5303C17 13.7703 14.76 11.5303 12 11.5303ZM14.07 16.1003L11.94 18.0703C11.8 18.2003 11.61 18.2703 11.43 18.2703C11.24 18.2703 11.05 18.2003 10.9 18.0503L9.90997 17.0603C9.61997 16.7703 9.61997 16.2903 9.90997 16.0003C10.2 15.7103 10.68 15.7103 10.97 16.0003L11.45 16.4803L13.05 15.0003C13.36 14.7203 13.83 14.7403 14.11 15.0403C14.39 15.3403 14.37 15.8103 14.07 16.1003Z" />
</svg>

<?xml version="1.0" encoding="UTF-8"?>
<svg width="24" height="24" viewBox="0 0 24 24" xmlns="http://www.w3.org/2000/svg">
 <path d="m20.27 17.19c-1 0.91-2.29 1.41-3.64 1.4h-0.09c0.3-0.62 0.46-1.32 0.46-2.06 0-2.76-2.24-5-5-5-2.76 0-5 2.24-5 5 0 0.74 0.16002 1.44 0.46002 2.06h-1.92c-4.68-0.33-4.68-7.14 0-7.47h0.05005c-3.21-8.93 10.33-12.5 11.88-3.12 4.33 0.55 6.08 6.32 2.8 9.19z" opacity=".4"/>
 <path d="m12 11.53c-2.76 0-5 2.24-5 5 0 0.74 0.16002 1.44 0.46002 2.06 0.08 0.18 0.16996 0.35 0.26996 0.51 0.86 1.45 2.45 2.43 4.27 2.43s3.41-0.98 4.27-2.43c0.1-0.16 0.19-0.33 0.27-0.51 0.3-0.62 0.46-1.32 0.46-2.06 0-2.76-2.24-5-5-5zm2.07 4.57-2.13 1.97c-0.14 0.13-0.33 0.2-0.51 0.2-0.19 0-0.38-0.07-0.53-0.22l-0.99003-0.99c-0.29-0.29-0.29-0.77 0-1.06 0.29003-0.29 0.77003-0.29 1.06 0l0.48 0.48 1.6-1.48c0.31-0.28 0.78-0.26 1.06 0.04s0.26 0.77-0.04 1.06z"/>
</svg>
